flaticon/security/laptop-2.svg

<svg xmlns="http://www.w3.org/2000/svg" width="32" height="32" viewBox="0 0 24 24">
    <path d="M 10.363281 15.507812 C 10.835938 15.878906 11.335938 16.167969 11.855469 16.371094 C 11.902344 16.390625 11.949219 16.398438 12 16.398438 C 12.050781 16.398438 12.097656 16.390625 12.144531 16.371094 C 12.664062 16.167969 13.164062 15.878906 13.636719 15.507812 C 15.226562 14.257812 16 12.726562 16 10.832031 L 16 8 C 16 7.796875 15.851562 7.628906 15.652344 7.601562 C 14.1875 7.417969 13.148438 6.703125 12.390625 6.183594 L 12.226562 6.070312 C 12.089844 5.976562 11.910156 5.976562 11.773438 6.070312 L 11.609375 6.183594 C 10.851562 6.703125 9.8125 7.417969 8.347656 7.601562 C 8.148438 7.628906 8 7.796875 8 8 L 8 10.832031 C 8 12.726562 8.773438 14.257812 10.363281 15.507812 Z M 8.800781 8.34375 C 10.230469 8.078125 11.277344 7.378906 12 6.886719 C 12.722656 7.378906 13.769531 8.078125 15.199219 8.34375 L 15.199219 10.832031 C 15.199219 12.488281 14.546875 13.777344 13.140625 14.878906 C 12.777344 15.167969 12.394531 15.398438 12 15.566406 C 11.605469 15.398438 11.222656 15.167969 10.859375 14.878906 C 9.453125 13.777344 8.800781 12.488281 8.800781 10.832031 Z M 8.800781 8.34375"/>
    <path d="M 23.367188 19.199219 L 22.800781 19.199219 L 22.800781 4.027344 C 22.800781 3.128906 22.070312 2.398438 21.171875 2.398438 L 2.828125 2.398438 C 1.929688 2.398438 1.199219 3.128906 1.199219 4.027344 L 1.199219 19.199219 L 0.632812 19.199219 C 0.28125 19.199219 0 19.484375 0 19.832031 L 0 20.96875 C 0 21.316406 0.28125 21.601562 0.632812 21.601562 L 23.367188 21.601562 C 23.71875 21.601562 24 21.316406 24 20.96875 L 24 19.832031 C 24 19.484375 23.71875 19.199219 23.367188 19.199219 Z M 2 4.027344 C 2 3.570312 2.371094 3.199219 2.828125 3.199219 L 21.171875 3.199219 C 21.628906 3.199219 22 3.570312 22 4.027344 L 22 19.199219 L 14.082031 19.199219 L 13.988281 19.464844 C 13.960938 19.53125 13.894531 19.601562 13.800781 19.601562 L 10.601562 19.601562 C 10.503906 19.601562 10.4375 19.53125 10.414062 19.464844 L 10.320312 19.199219 L 2 19.199219 Z M 23.199219 20.800781 L 0.800781 20.800781 L 0.800781 20 L 9.804688 20 C 9.988281 20.246094 10.28125 20.398438 10.601562 20.398438 L 13.800781 20.398438 C 14.117188 20.398438 14.410156 20.246094 14.597656 20 L 23.199219 20 Z M 23.199219 20.800781"/>
    <path d="M 21.601562 3.601562 L 2.398438 3.601562 L 2.398438 18.800781 L 21.601562 18.800781 Z M 20.800781 18 L 3.199219 18 L 3.199219 4.398438 L 20.800781 4.398438 Z M 20.800781 18"/>
</svg>

<svg xmlns="http://www.w3.org/2000/svg" width="32" height="32" viewBox="0 0 24 24">
    <path d="M10.363 15.508c.473.37.973.66 1.492.863.047.02.094.027.145.027.05 0 .098-.007.145-.027a5.896 5.896 0 0 0 1.492-.863c1.59-1.25 2.363-2.781 2.363-4.676V8a.4.4 0 0 0-.348-.398c-1.464-.184-2.504-.899-3.261-1.418l-.164-.114a.4.4 0 0 0-.454 0l-.164.114c-.757.52-1.796 1.234-3.261 1.418A.4.4 0 0 0 8 8v2.832c0 1.895.773 3.426 2.363 4.676zM8.801 8.344c1.43-.266 2.476-.965 3.199-1.457.723.492 1.77 1.191 3.2 1.457v2.488c0 1.656-.653 2.945-2.06 4.047-.363.289-.745.52-1.14.687a4.954 4.954 0 0 1-1.14-.687c-1.407-1.102-2.06-2.39-2.06-4.047zm0 0"/>
    <path d="M23.367 19.2h-.566V4.026a1.63 1.63 0 0 0-1.63-1.629H2.829A1.63 1.63 0 0 0 1.2 4.028v15.171H.633a.633.633 0 0 0-.633.633v1.137c0 .347.281.633.633.633h22.734a.633.633 0 0 0 .633-.633v-1.137a.633.633 0 0 0-.633-.633zM2 4.026c0-.457.371-.828.828-.828h18.344c.457 0 .828.371.828.828V19.2h-7.918l-.094.266c-.027.066-.093.137-.187.137h-3.2a.202.202 0 0 1-.187-.137l-.094-.266H2zm21.2 16.774H.8V20h9.005a.993.993 0 0 0 .797.398H13.8c.316 0 .61-.152.797-.398h8.601zm0 0"/>
    <path d="M21.602 3.602H2.398V18.8h19.204zM20.8 18H3.199V4.398h17.602zm0 0"/>
</svg>
